X:27
T:Santel
M:4/4
K:Eb
B,2B,2 E2E2|z2G2 GGFE|C2C2 D2D2|[M:2/4]E4||
w:San-tel, san-tel|San-tel an Ao-trou|Dou-e, Mestr ar|bed|
[M:4/4]GGGB G2GG|EEEE F2F2|G2E2 B3B|[M:3/2]A2c2 B4 B4||
w:Leun eo gand ho kloar**|an nenv hag an dou-ar|Ho-san-na e|barr an ne-vou.|
w:Ben-ni-get an hi-ni a|zeu en ha-no Dou-e|Ho-san-na e|barr an ne-vou.|
